packages/docs/next-doc-site/public/logo/logo-regular-inverted.svg

<?xml version="1.0" encoding="UTF-8"?>
<svg width="173px" height="36px" viewBox="0 0 173 36" version="1.1" xmlns="http://www.w3.org/2000/svg" xmlns:xlink="http://www.w3.org/1999/xlink">
    <title>datacamp/regular</title>
    <g id="Logos" stroke="none" stroke-width="1" fill="none" fill-rule="evenodd">
        <g id="Full-Inverted" transform="translate(-32.000000, -32.000000)">
            <g id="Group" transform="translate(32.000000, 32.000000)">
                <g id="logo" transform="translate(-0.000021, 0.001275)">
                    <path d="M42.5600207,27.0979249 C39.4150904,27.0979249 36.8656207,24.5484552 36.8656207,21.4035249 C36.8656207,18.2585946 39.4150904,15.7091249 42.5600207,15.7091249 C45.704951,15.7091249 48.2544207,18.2585946 48.2544207,21.4035249 C48.2544207,22.9137737 47.6544767,24.3621666 46.5865696,25.4300738 C45.5186624,26.4979809 44.0702695,27.0979249 42.5600207,27.0979249 M48.2640207,6.47552492 L48.2640207,15.3283249 C44.9584904,12.2230083 39.776661,12.3308761 36.6032221,15.5710625 C33.4297833,18.8112489 33.4297833,23.9942009 36.6032221,27.2343873 C39.776661,30.4745737 44.9584904,30.5824415 48.2640207,27.4771249 L48.2640207,29.3123249 L50.8960207,29.3123249 L50.8960207,6.47552492 L48.2640207,6.47552492 Z M121.544021,27.0979249 C118.39909,27.0979249 115.849621,24.5484552 115.849621,21.4035249 C115.849621,18.2585946 118.39909,15.7091249 121.544021,15.7091249 C124.688951,15.7091249 127.238421,18.2585946 127.238421,21.4035249 C127.238421,22.9137737 126.638477,24.3621666 125.57057,25.4300738 C124.502662,26.4979809 123.054269,27.0979249 121.544021,27.0979249 M129.876821,21.4035249 L129.876821,21.4035249 L129.876821,13.1571249 L127.246421,13.1571249 L127.246421,15.3283249 C123.94089,12.2230083 118.759061,12.3308761 115.585622,15.5710625 C112.412183,18.8112489 112.412183,23.9942009 115.585622,27.2343873 C118.759061,30.4745737 123.94089,30.5824415 127.246421,27.4771249 L127.246421,29.3123249 L129.878421,29.3123249 L129.878421,21.4035249 L129.876821,21.4035249 Z M150.864021,13.7699249 C151.099454,13.382943 151.519849,13.1469639 151.972821,13.1475239 L152.480021,13.1475239 C153.55543,13.1475239 154.427221,14.0193161 154.427221,15.0947249 L154.427221,29.3123253 L151.740821,29.3123253 L151.740821,17.2675249 C150.502421,19.2675249 146.067221,26.5171249 144.737621,28.6915249 C144.502092,29.0774062 144.082503,29.312667 143.630421,29.3123253 L143.081621,29.3123253 C142.364976,29.3123253 141.784021,28.7313696 141.784021,28.0147249 L141.784021,17.2371249 C140.332821,19.5795249 135.876821,26.8611249 134.473621,29.1907249 L134.400021,29.3123253 L131.825621,29.3123253 L131.825621,13.1523249 L134.510421,13.1523249 L134.510421,13.1859249 L134.448021,24.3331249 L140.886421,13.7731249 C141.122305,13.3866099 141.542413,13.1507917 141.995221,13.1507249 L142.505621,13.1507249 C143.579158,13.1507217 144.450174,14.0195911 144.452821,15.0931249 C144.452821,18.0643249 144.467221,23.4755249 144.467221,24.2627249 L150.864021,13.7699249 Z M112.944021,26.3107249 C110.801055,29.2555359 106.993659,30.4670662 103.542969,29.3021816 C100.09228,28.137297 97.7981893,24.8660257 97.8785036,21.2249044 C97.958818,17.583783 100.39492,14.4168483 103.893617,13.4052504 C107.392315,12.3936525 111.142586,13.7718868 113.153621,16.8083249 L110.630421,18.1203249 C109.269167,16.2018873 106.843698,15.3539214 104.583657,16.0063213 C102.323615,16.6587212 100.72318,18.6688335 100.593725,21.0175897 C100.46427,23.3663458 101.834103,25.5401682 104.008757,26.436992 C106.183411,27.3338158 108.687379,26.7575421 110.251221,25.0003249 L112.944021,26.3107249 Z M164.486421,27.1107249 C161.475733,27.1093552 158.986656,24.7640137 158.806421,21.7587249 L158.806421,21.0771249 C158.991996,17.981923 161.619937,15.6041376 164.71822,15.7280756 C167.816502,15.8520135 170.246117,18.432112 170.183866,21.5322471 C170.121614,24.6323822 167.590381,27.1128655 164.489621,27.112325 M164.489621,13.0851249 C162.379298,13.0819217 160.347045,13.8829225 158.806421,15.3251249 L158.806421,13.1571249 L156.174421,13.1571249 L156.174421,35.9091249 L158.806421,35.9091249 L158.806421,27.5091249 C161.538033,30.0576748 165.632018,30.4766906 168.82327,28.534341 C172.014522,26.5919914 173.522996,22.7630505 172.514089,19.1659795 C171.505181,15.5689085 168.225503,13.0829499 164.489621,13.0835248 M75.2768207,15.6787249 L75.2768207,25.6163249 C75.2768207,26.2057232 75.7546224,26.6835249 76.3440207,26.6835249 L79.4080207,26.6835249 L79.4080207,29.3123249 L76.3456207,29.3123249 C74.3051076,29.3105605 72.6513851,27.6568381 72.6496207,25.6163249 L72.6400207,15.6787249 L69.8016207,15.6787249 L69.8016207,13.1187249 L72.6400207,13.1187249 L72.6400207,8.70112492 L75.2752207,8.70112492 L75.2752207,13.1283249 L79.9472207,13.1283249 L79.9472207,15.6787249 L75.2768207,15.6787249 Z M88.0336207,27.0963249 C84.8886904,27.0963249 82.3392207,24.5468552 82.3392207,21.4019249 C82.3392207,18.2569946 84.8886904,15.7075249 88.0336207,15.7075249 C91.178551,15.7075249 93.7280207,18.2569946 93.7280207,21.4019249 C93.7280207,22.9121737 93.1280767,24.3605666 92.0601696,25.4284738 C90.9922624,26.4963809 89.5438695,27.0963249 88.0336207,27.0963249 M93.7360207,13.1555249 L93.7360207,15.3283249 C90.4304904,12.2230083 85.248661,12.3308761 82.0752221,15.5710625 C78.9017833,18.8112489 78.9017833,23.9942009 82.0752221,27.2343873 C85.248661,30.4745737 90.4304904,30.5824415 93.7360207,27.4771249 L93.7360207,29.3123249 L96.3680207,29.3123249 L96.3680207,13.1523249 L93.7360207,13.1555249 Z M60.2848207,27.0979251 C57.1398904,27.0979251 54.5904207,24.5484552 54.5904207,21.4035249 C54.5904207,18.2585946 57.1398904,15.7091249 60.2848207,15.7091249 C63.429751,15.7091249 65.9792209,18.2585946 65.9792209,21.4035249 C65.9796453,22.9139038 65.3798376,24.3625434 64.3118384,25.4305426 C63.2438392,26.4985418 61.7951996,27.0983495 60.2848207,27.0979251 M65.9872207,13.1571249 L65.9872207,15.3283249 C62.6816904,12.2230083 57.499861,12.3308761 54.3264221,15.5710625 C51.1529833,18.8112489 51.1529833,23.9942009 54.3264221,27.2343873 C57.499861,30.4745737 62.6816904,30.5824415 65.9872207,27.4771249 L65.9872207,29.3123249 L68.6176207,29.3123249 L68.6176207,13.1523249 L65.9872207,13.1571249 Z" id="Shape" fill="#FFFFFF"></path>
                    <path d="M11.6992207,8.51232492 L11.6992207,16.8451249 L2.85762072,21.8883249 L2.85762072,3.43872492 L11.6992207,8.51232492 Z M14.5600207,26.0195249 L14.5600207,18.5091249 L26.4000207,11.7523249 L23.5200207,10.1027249 L14.5600207,15.2147249 L14.5600207,7.67872492 C14.5584004,7.16654925 14.2848525,6.69378056 13.8416207,6.43712492 L3.05602072,0.254724923 C3.02722072,0.237124923 2.99842072,0.222724923 2.96962072,0.208324923 C2.32889073,-0.103541045 1.57266059,-0.0631271016 0.968818136,0.315250471 C0.36497568,0.693628044 -0.00119428258,1.35652839 1.0309871e-05,2.06912492 L1.0309871e-05,23.2531249 C-0.00223887606,23.9666712 0.36365336,24.6309343 0.967954991,25.010372 C1.57225662,25.3898096 2.32951814,25.4307685 2.97122072,25.1187249 L3.05282072,25.0771249 L11.6928207,20.1443249 L11.6928207,26.8643249 C11.6945334,27.3777316 11.9694645,27.8513935 12.4144207,28.1075249 L23.5024207,34.3987249 L26.3824207,32.7475249 L14.5600207,26.0195249 Z" id="Logo" fill="#03EF62"></path>
                </g>
            </g>
        </g>
    </g>
</svg>

<svg width="173" height="36" viewBox="0 0 173 36" xmlns="http://www.w3.org/2000/svg">
  <g fill="none" fill-rule="evenodd">
    <path d="M42.56 27.1a5.694 5.694 0 110-11.39 5.694 5.694 0 010 11.39m5.704-20.623v8.853a8.334 8.334 0 100 12.148v1.836h2.632V6.477h-2.632zm73.28 20.622a5.694 5.694 0 110-11.389 5.694 5.694 0 010 11.39m8.333-5.695v-8.247h-2.63v2.172a8.334 8.334 0 100 12.148v1.836h2.631v-7.91h-.001zm20.987-7.634a1.296 1.296 0 011.109-.622h.507c1.075 0 1.947.872 1.947 1.947v14.218h-2.686V17.269c-1.239 2-5.674 9.25-7.003 11.424a1.296 1.296 0 01-1.108.62h-.548a1.298 1.298 0 01-1.298-1.297V17.238a1909.582 1909.582 0 00-7.31 11.954l-.074.122h-2.574v-16.16h2.684v.033l-.062 11.147 6.438-10.56a1.3 1.3 0 011.11-.622h.51c1.073 0 1.944.869 1.947 1.942 0 2.972.014 8.383.014 9.17l6.397-10.493zm-37.92 12.541a8.331 8.331 0 11.21-9.502l-2.524 1.312a5.533 5.533 0 10-.379 6.88l2.693 1.31zm51.542.8a5.693 5.693 0 01-5.68-5.352v-.682a5.694 5.694 0 115.684 6.036m0-14.028a8.298 8.298 0 00-5.684 2.24v-2.168h-2.632V35.91h2.632v-8.4a8.333 8.333 0 105.684-14.425M75.277 15.68v9.938c0 .589.478 1.067 1.067 1.067h3.064v2.629h-3.062a3.7 3.7 0 01-3.696-3.696l-.01-9.938h-2.838v-2.56h2.838V8.702h2.635v4.428h4.672v2.55h-4.67zm12.757 11.418a5.694 5.694 0 110-11.39 5.694 5.694 0 010 11.39m5.702-13.941v2.173a8.334 8.334 0 100 12.148v1.836h2.632v-16.16l-2.632.003zM60.285 27.099a5.694 5.694 0 110-11.389 5.694 5.694 0 010 11.39m5.702-13.942v2.172a8.334 8.334 0 100 12.148v1.836h2.63v-16.16l-2.63.004z" fill="#FFF"/>
    <path d="M11.7 8.514v8.332L2.857 21.89V3.44l8.841 5.074zm2.86 17.507v-7.51l11.84-6.757-2.88-1.65-8.96 5.112V7.68a1.44 1.44 0 00-.718-1.242L3.056.256A2.066 2.066 0 000 2.07v21.184a2.067 2.067 0 002.971 1.866l.082-.042 8.64-4.932v6.72c.002.513.276.987.721 1.243L23.502 34.4l2.88-1.651L14.56 26.02z" fill="#03EF62"/>
  </g>
</svg>
